logos/rollbar.svg

<?xml version="1.0" encoding="UTF-8"?>
<svg width="512px" height="112px" viewBox="0 0 512 112" version="1.1" xmlns="http://www.w3.org/2000/svg" xmlns:xlink="http://www.w3.org/1999/xlink" preserveAspectRatio="xMidYMid">
    <g>
        <path d="M133.6,3.31603457 C133.5981,3.10120283 133.576679,2.88698832 133.536,2.67603457 C133.536,2.61203457 133.504,2.55443457 133.4848,2.49043457 C133.4656,2.42643457 133.4016,2.20243457 133.3504,2.06163457 L133.2544,1.85683457 C133.194778,1.73468036 133.12633,1.61703523 133.0496,1.50483457 C133.0048,1.43443457 132.96,1.36403457 132.9088,1.29363457 L132.8192,1.17203457 C132.768,1.11443457 132.7104,1.06963457 132.6592,1.01843457 L132.5312,0.864834568 L132.4288,0.794434568 C132.335006,0.714230178 132.236713,0.639442005 132.1344,0.570434568 L131.8848,0.410434568 C131.774779,0.35275853 131.661524,0.301473442 131.5456,0.256834568 L131.2768,0.148034568 C131.1552,0.109634568 131.0272,0.0904345682 130.9056,0.0648345682 L130.6304,0.00723456816 C130.479087,-0.00241152272 130.327313,-0.00241152272 130.176,0.00723456816 L129.92,0.00723456816 C128.2048,0.160834568 105.5424,2.32403457 80.0704,13.6840346 C64.7744,20.4872346 52.9344,30.9320346 45.4848,43.6104346 L43.5648,44.4424346 C16.2944,56.6152346 0,80.2760346 0,107.738435 L0,108.199235 C0,109.489747 0.750005395,110.662684 1.92,111.207235 C2.35982196,111.408788 2.83779576,111.51448 3.3216,111.51448 L93.8496,111.51448 C94.025529,111.51448 94.201184,111.500425 94.3744,111.469635 L94.6048,111.412035 C94.7136,111.380035 94.8224,111.360835 94.9312,111.322435 C95.04,111.284035 95.0912,111.245635 95.1744,111.207235 C95.2576,111.168835 95.3664,111.130435 95.456,111.079235 C95.6249702,110.979428 95.785504,110.865984 95.936,110.740035 L132.416,79.9816346 C133.171169,79.3470022 133.603103,78.408016 133.5936,77.4216346 L133.5936,3.31603457 L133.6,3.31603457 Z M100.6144,98.1064346 L97.1136,101.056835 L97.1136,35.6168346 L126.9632,10.4584346 L126.9632,75.8984346 L100.6144,98.1064346 Z M41.0176,80.7560346 L90.4768,80.7560346 L90.4768,104.877635 L12.3968,104.877635 L41.0176,80.7560346 Z M82.7648,19.7512346 C94.4229248,14.6181384 106.618026,10.803547 119.1232,8.37843457 L92.4416,30.8744346 C80.1257184,32.3771654 68.0124013,35.2295039 56.32,39.3800346 C62.9248,31.3160346 71.8336,24.6280346 82.7648,19.7512346 Z M49.9776,48.9224346 C62.9708041,43.5740304 76.5727315,39.8446777 90.4768,37.8184346 L90.4768,74.1192346 L43.1936,74.1192346 C43.5345667,65.3174982 45.8532569,56.7055327 49.9776,48.9224346 L49.9776,48.9224346 Z M40.8704,53.1592346 C38.0740757,60.415342 36.587564,68.1100992 36.48,75.8856346 L7.04,100.730435 C9.2672,80.5448346 21.2544,63.6616346 40.8704,53.1592346 Z" fill="#3C72FF"></path>
        <path d="M159.0656,92.4360346 L159.0656,17.2872346 L190.1696,17.2872346 C198.208,17.2872346 204.669867,19.3715013 209.5552,23.5400346 C214.440533,27.7085679 216.881067,33.8504346 216.8768,41.9656346 C217.106454,50.8067584 212.538362,59.081223 204.9344,63.5976346 L221.0432,92.4488346 L199.6352,92.4488346 L186.9056,66.8488346 L178.56,66.8488346 L178.56,92.4488346 L159.0656,92.4360346 Z M178.56,51.2072346 L188.2496,51.2072346 C190.62332,51.2983617 192.932556,50.4231609 194.6496,48.7816346 C196.344333,47.0634634 197.244505,44.715593 197.1328,42.3048346 C197.1328,39.4504346 196.343467,37.1955013 194.7648,35.5400346 C193.186133,33.8845679 190.984533,33.0547013 188.16,33.0504346 L178.56,33.0504346 L178.56,51.2072346 Z M223.5264,65.9272346 C223.46233,60.9320697 224.683258,56.0042812 227.072,51.6168346 C229.40541,47.371769 232.855857,43.8460723 237.0496,41.4216346 C241.536883,38.8510203 246.637523,37.5459995 251.808,37.6456346 C257.444267,37.6456346 262.385067,38.9043013 266.6304,41.4216346 C270.800775,43.8663676 274.227634,47.3994169 276.544,51.6424346 C278.933402,56.0206461 280.156583,60.9398198 280.096,65.9272346 C280.161855,70.9233971 278.938483,75.8521549 276.544,80.2376346 C274.22406,84.473017 270.797628,87.9989894 266.6304,90.4392346 C262.363733,92.9565677 257.422933,94.2152346 251.808,94.2152346 C246.637523,94.3148698 241.536883,93.009849 237.0496,90.4392346 C232.858812,88.0195232 229.408739,84.5008467 227.072,80.2632346 C224.678179,75.8685158 223.457062,70.931145 223.5264,65.9272346 Z M251.808,77.5368346 C254.704077,77.6526477 257.491301,76.4243795 259.36,74.2088346 C261.275852,71.8833331 262.277158,68.9385818 262.176,65.9272346 C262.275975,62.916063 261.274807,59.971718 259.36,57.6456346 C257.420428,55.529528 254.681713,54.3246821 251.8112,54.3246821 C248.940687,54.3246821 246.201972,55.529528 244.2624,57.6456346 C242.342675,59.9693453 241.338852,62.9148032 241.44,65.9272346 C241.328172,68.9529158 242.332698,71.914103 244.2624,74.2472346 C246.130436,76.458583 248.915725,77.6823149 251.808,77.5624346 L251.808,77.5368346 Z M288.8832,92.4104346 L307.9296,92.4104346 L307.9296,17.2872346 L288.8832,17.2872346 L288.8832,92.4104346 Z M318.9632,92.4104346 L338.0096,92.4104346 L338.0096,17.2872346 L318.9696,17.2872346 L318.9632,92.4104346 Z M349.0432,89.9272346 L349.0432,17.2872346 L368.0896,17.2872346 L368.0896,43.7576346 C369.354006,42.3189672 370.909334,41.165014 372.6528,40.3720346 C374.235642,39.6582287 375.895742,39.1299174 377.6,38.7976346 C378.863812,38.5324467 380.149084,38.3824984 381.44,38.3496346 C386.3936,38.3496346 390.581333,39.5869679 394.0032,42.0616346 C397.425355,44.5514943 400.111868,47.9190337 401.7792,51.8088346 C403.550729,55.8803923 404.451073,60.2774685 404.4224,64.7176346 C404.4224,74.0317677 401.719467,81.2851014 396.3136,86.4776346 C390.907733,91.6701677 382.944,94.2621677 372.4224,94.2538494 C368.082813,94.2619853 363.755645,93.7897741 359.52,92.8456346 C355.979982,92.080512 352.486341,91.1146861 349.056,89.9528346 L349.0432,89.9272346 Z M368.0896,64.8008346 L368.0896,77.5368346 C369.027198,77.8682893 369.987579,78.1313779 370.9632,78.3240346 C372.207292,78.5635514 373.472339,78.677191 374.7392,78.6632346 C377.59485,78.7669152 380.354126,77.6220845 382.2976,75.5272346 C384.256,73.4195014 385.233067,70.0765677 385.228828,65.4984346 C385.219875,63.7912659 384.934584,62.0968054 384.384,60.4808346 C383.871503,58.8717557 382.959986,57.4186123 381.7344,56.2568346 C380.440776,55.0946322 378.741999,54.4877623 377.0048,54.5672346 C373.847467,54.5672346 371.575467,55.5443013 370.1888,57.4984346 C368.733258,59.6577765 368.002543,62.2242456 368.1024,64.8264346 L368.0896,64.8008346 Z M443.8144,92.4104346 L443.136,87.4504346 C441.135128,89.7398061 438.661085,91.5674976 435.8848,92.8072346 C432.978495,93.8608883 429.899831,94.3580774 426.8096,94.2728346 C424.309621,94.2406848 421.833494,93.7818221 419.488,92.9160346 C416.880469,91.9762259 414.60618,90.2916499 412.9472,88.0712346 C411.1424,85.7245677 410.24,82.4477677 410.24,78.2408346 C410.24,73.9741677 411.4048,70.4051014 413.7344,67.5336346 C416.201086,64.5797248 419.414449,62.3409786 423.04,61.0504346 C427.059156,59.571508 431.314458,58.8384336 435.5968,58.8872346 C437.3248,58.8872346 438.715733,58.9256346 439.7696,59.0024346 C440.8192,59.0728346 441.9456,59.1880346 443.1488,59.3416346 L443.1488,58.2920346 C443.1488,56.4189679 442.679467,55.0109679 441.7408,54.0680346 C440.793972,53.123619 439.604614,52.4591728 438.304,52.1480346 C437.015654,51.8180449 435.691523,51.6482294 434.3616,51.6424346 C431.363698,51.5909132 428.3771,52.023127 425.5168,52.9224346 C423.297599,53.6046653 421.190792,54.6095495 419.264,55.9048346 L412.0512,44.9928346 C414.304,43.1923013 417.476267,41.5411013 421.568,40.0392346 C425.659733,38.5373679 430.824533,37.7800346 437.0624,37.7672346 C444.426667,37.7672346 450.3808,39.6659013 454.9248,43.4632346 C459.4688,47.2605679 461.7408,52.9117679 461.7408,60.4168346 L461.7408,92.4168346 L443.8144,92.4104346 Z M443.136,73.0248346 L443.136,69.5368346 C441.430045,69.194656 439.691469,69.0422624 437.952,69.0824346 C434.794667,69.0824346 432.4672,69.7032346 430.9696,70.9448346 C429.553068,71.9983987 428.717794,73.6594566 428.7168,75.4248346 C428.7168,79.3373677 430.820267,81.2915014 435.0272,81.2872486 C437.001111,81.2799706 438.925786,80.670416 440.544,79.5400346 C442.280533,78.3709677 443.1488,76.2077677 443.1488,73.0504346 L443.136,73.0248346 Z M472.576,92.4104346 L472.576,39.4696346 L490.944,39.4696346 L491.584,46.1192346 C493.098429,44.006896 494.990525,42.1929132 497.1648,40.7688346 C499.571871,39.2504337 502.377782,38.485996 505.2224,38.5736346 C506.520932,38.5593656 507.818914,38.6342081 509.1072,38.7976346 C510.084552,38.91143 511.047532,39.125902 511.9808,39.4376346 L509.5232,55.6872346 C507.715031,55.2499717 505.860249,55.0350492 504,55.0472346 C495.735467,55.0472346 491.6032,59.5933679 491.6032,68.6856346 L491.6032,92.4616346 L472.576,92.4104346 Z" fill="#343F55"></path>
    </g>
</svg>

<svg width="512" height="112" xmlns="http://www.w3.org/2000/svg" preserveAspectRatio="xMidYMid">
	<path d="M133.6 3.316a3.546 3.546 0 0 0-.064-.64c0-.064-.032-.122-.051-.186-.02-.064-.083-.288-.135-.428l-.096-.205a2.797 2.797 0 0 0-.204-.352c-.045-.07-.09-.141-.141-.211l-.09-.122c-.051-.058-.109-.102-.16-.154l-.128-.153-.102-.07a3.245 3.245 0 0 0-.295-.225l-.25-.16a3.232 3.232 0 0 0-.338-.153l-.27-.109c-.12-.038-.249-.058-.37-.083l-.276-.058a3.571 3.571 0 0 0-.454 0h-.256c-1.715.154-24.378 2.317-49.85 13.677-15.296 6.803-27.136 17.248-34.585 29.926l-1.92.832C16.295 56.615 0 80.276 0 107.738v.461a3.32 3.32 0 0 0 3.322 3.315H93.85c.176 0 .351-.014.524-.044l.23-.058c.11-.032.218-.051.327-.09.109-.038.16-.076.243-.115.084-.038.192-.077.282-.128.169-.1.33-.213.48-.339l36.48-30.758a3.302 3.302 0 0 0 1.178-2.56V3.316h.006Zm-32.986 94.79-3.5 2.95v-65.44l29.85-25.158v65.44l-26.35 22.208Zm-59.596-17.35h49.459v24.122h-78.08l28.62-24.122Zm41.747-61.005a171.027 171.027 0 0 1 36.358-11.373L92.442 30.874A169.26 169.26 0 0 0 56.32 39.38c6.605-8.064 15.514-14.752 26.445-19.629ZM49.978 48.922a171.29 171.29 0 0 1 40.499-11.104V74.12H43.194a58.662 58.662 0 0 1 6.784-25.197ZM40.87 53.16a65.728 65.728 0 0 0-4.39 22.727L7.04 100.73c2.227-20.185 14.214-37.068 33.83-47.57Z" fill="#3C72FF"/>
	<path d="M159.066 92.436V17.287h31.104c8.038 0 14.5 2.085 19.385 6.253 4.886 4.169 7.326 10.31 7.322 18.426a24.422 24.422 0 0 1-11.943 21.632l16.11 28.85h-21.409l-12.73-25.6h-8.345v25.6l-19.494-.012Zm19.494-41.229h9.69a8.774 8.774 0 0 0 6.4-2.425 8.653 8.653 0 0 0 2.483-6.477c0-2.855-.79-5.11-2.368-6.765-1.579-1.655-3.78-2.485-6.605-2.49h-9.6v18.157Zm44.966 14.72a29.146 29.146 0 0 1 3.546-14.31 26.547 26.547 0 0 1 9.978-10.195 28.582 28.582 0 0 1 14.758-3.776c5.636 0 10.577 1.258 14.822 3.776a26.65 26.65 0 0 1 9.914 10.22 29.082 29.082 0 0 1 3.552 14.285 29.062 29.062 0 0 1-3.552 14.31 26.669 26.669 0 0 1-9.914 10.202c-4.266 2.518-9.207 3.776-14.822 3.776a28.582 28.582 0 0 1-14.758-3.776 26.56 26.56 0 0 1-9.978-10.176 29.126 29.126 0 0 1-3.546-14.336Zm28.282 11.61a9.389 9.389 0 0 0 7.552-3.328 12.371 12.371 0 0 0 2.816-8.282c.1-3.01-.901-5.955-2.816-8.281a10.24 10.24 0 0 0-15.098 0 12.352 12.352 0 0 0-2.822 8.281 12.34 12.34 0 0 0 2.822 8.32 9.37 9.37 0 0 0 7.546 3.315v-.025Zm37.075 14.873h19.047V17.287h-19.047V92.41Zm30.08 0h19.047V17.287h-19.04l-.007 75.123Zm30.08-2.483v-72.64h19.047v26.47a13.536 13.536 0 0 1 4.563-3.385 22.515 22.515 0 0 1 4.947-1.574 21.344 21.344 0 0 1 3.84-.448c4.954 0 9.141 1.237 12.563 3.712a23.507 23.507 0 0 1 7.776 9.747 31.84 31.84 0 0 1 2.643 12.909c0 9.314-2.703 16.567-8.108 21.76-5.406 5.192-13.37 7.784-23.892 7.776a58.797 58.797 0 0 1-12.902-1.408 95.526 95.526 0 0 1-10.464-2.893l-.013-.026Zm19.047-25.126v12.736c.937.331 1.898.594 2.873.787 1.244.24 2.51.353 3.776.34a9.824 9.824 0 0 0 7.559-3.137c1.958-2.107 2.935-5.45 2.93-10.029a15.815 15.815 0 0 0-.844-5.017 10.003 10.003 0 0 0-2.65-4.224 6.624 6.624 0 0 0-4.73-1.69c-3.157 0-5.429.977-6.815 2.931a12.269 12.269 0 0 0-2.087 7.328l-.012-.025Zm75.724 27.61-.678-4.96c-2 2.289-4.475 4.116-7.251 5.356a24.634 24.634 0 0 1-9.075 1.466 21.958 21.958 0 0 1-7.322-1.357 14.157 14.157 0 0 1-6.54-4.845c-1.806-2.346-2.708-5.623-2.708-9.83 0-4.267 1.165-7.836 3.494-10.707a21.53 21.53 0 0 1 9.306-6.484 35.2 35.2 0 0 1 12.557-2.163c1.728 0 3.119.039 4.173.115 1.05.07 2.176.186 3.379.34v-1.05c0-1.873-.47-3.281-1.408-4.224a7.258 7.258 0 0 0-3.437-1.92c-1.288-.33-2.612-.5-3.942-.506a27.891 27.891 0 0 0-8.845 1.28 23.68 23.68 0 0 0-6.253 2.983l-7.213-10.912c2.253-1.8 5.425-3.452 9.517-4.954 4.092-1.502 9.257-2.259 15.494-2.272 7.365 0 13.319 1.899 17.863 5.696 4.544 3.798 6.816 9.449 6.816 16.954v32l-17.927-.007Zm-.678-19.386v-3.488a23.59 23.59 0 0 0-5.184-.455c-3.157 0-5.485.621-6.982 1.863a5.587 5.587 0 0 0-2.253 4.48c0 3.912 2.103 5.867 6.31 5.862a9.696 9.696 0 0 0 5.517-1.747c1.737-1.169 2.605-3.332 2.605-6.49l-.013-.025Zm29.44 19.385V39.47h18.368l.64 6.65a21.075 21.075 0 0 1 5.58-5.351 14.278 14.278 0 0 1 8.058-2.195 28.39 28.39 0 0 1 3.885.224c.978.113 1.94.328 2.874.64l-2.458 16.25a22.86 22.86 0 0 0-5.523-.64c-8.265 0-12.397 4.545-12.397 13.638v23.776l-19.027-.052Z" fill="#343F55"/>
</svg>
